X:1
T:Title
%%score { ( 1 3 ) | 2 }
L:1/8
M:6/8
K:A
V:1 treble nm="Grand Piano"
V:3 treble 
V:2 bass 
V:1
 z3 z2[Q:1/4=100] [CE] | [Ec]2 [Ec] [DB]2 [Ec] | [CA]3 [CE]2 [CE] | [DF]2 [FA] [EG]2 [DF] | %4
[M:5/8] [CE]-[CE]- [CE]3 |[M:1/8] [CE] |[M:3/4] B2 B A2 B | [Ec]3 [CA]2 [Ec] | %8
 [^Dc]2 [DF] [DG]2 [DA] |[M:5/8] B-B- B3 |[M:1/8] E |[M:3/4] d2 d d2 d | [Ed]3 [Ec]2 [Ec] | %13
 [Ec]2 [EG] [Ec]2 [EB] |[M:5/8] [FA]-[FA]- [FA]3 |[M:1/8] [FA] |[M:3/4] [FA]2 [FA] [EG]2 F | %17
 E3 A2 [FB] | c2 c c2 B |[M:5/8] [CA]-[CA]- [CA]3 |[M:1/8] e |[M:3/4] e2 e e2 e | e3 E2 E | %23
 d2 d d2 d |[M:5/8] d3 c2 |[M:1/8] E |[M:3/4] F2 F [^Dc]2 [DB] | [DE]3 [CB]2 [CA] | A2 G F2 G | %29
[M:5/8] [CA]-[CA]- [CA]3 |] %30
V:2
 z3 z2 [A,,A,] | [A,,A,]2 [A,,A,] [A,,A,]2 [A,,A,] | [A,,A,]3 [A,,A,]2 [A,,A,] | %3
 [D,A,]2 [D,A,] [D,A,]2 [D,A,] |[M:5/8] [A,,A,]-[A,,A,]- [A,,A,]3 |[M:1/8] [A,,A,] | %6
[M:3/4] [E,G,D]2 [E,G,D] [F,A,C]2 [E,G,E] | [A,,A,]3 [A,,A,]2 [A,,A,] | %8
 [B,,F,]2 [B,,F,] [B,,B,]2 [B,,B,] |[M:5/8] [E,G,E]-[E,G,E]- [E,G,E]3 |[M:1/8] [E,G,] | %11
[M:3/4] [E,G,E]2 [F,A,E] [G,B,E]2 [E,G,E] | [A,,A,]3 [A,,A,]2 [A,,A,] | %13
 [C,G,]2 [C,C] [C,C]2 [C,C] |[M:5/8] [F,C]-[F,C]- [F,C]3 |[M:1/8] [F,C] | %16
[M:3/4] [D,D]2 [D,D] [D,A,]2 [D,A,D] | [C,A,]3 [F,A,C]2 [D,A,] | %18
 [E,A,E]2 [E,A,E] [E,A,E]2 [E,G,D] |[M:5/8] [A,,A,]-[A,,A,]- [A,,A,]3 |[M:1/8] [E,G,E] | %21
[M:3/4] [E,G,E]2 [F,A,E] [G,B,E]2 [A,CE] | [B,DE]3 [E,G,]2 [E,G,] | %23
 [E,G,E]2 [F,A,E] [G,B,E]2 [E,G,E] |[M:5/8] [A,,A,]-[A,,A,]- [A,,A,]3 |[M:1/8] [C,A,] | %26
[M:3/4] [D,A,D]2 [D,A,D] [B,,A,]2 [B,,A,] | [E,G,]3 [A,,A,]2 [A,,A,] | %28
 [E,B,D]2 [E,B,D] [E,A,D]2 [E,B,D] |[M:5/8] [A,,A,]-[A,,A,]- [A,,A,]3 |] %30
V:3
 x6 | x6 | x6 | x6 |[M:5/8] x5 |[M:1/8] x |[M:3/4] x6 | x6 | x6 |[M:5/8] x5 |[M:1/8] x | %11
[M:3/4] x6 | x6 | x6 |[M:5/8] x5 |[M:1/8] x |[M:3/4] x6 | x6 | x6 |[M:5/8] x5 |[M:1/8] x | %21
[M:3/4] x6 | x6 | x6 |[M:5/8] E-E- E3 |[M:1/8] x |[M:3/4] x6 | x6 | x6 |[M:5/8] x5 |] %30

